src/next/cmd/lc_text.svg

<svg height="24" width="24" xmlns="http://www.w3.org/2000/svg" xmlns:xlink="http://www.w3.org/1999/xlink"><linearGradient id="a" gradientTransform="matrix(1.7338699 0 0 1.7836298 -50.197128 -58.893096)" gradientUnits="userSpaceOnUse" x1="64" x2="64" y1="22.506487" y2="93.317558"><stop offset="0" stop-color="#1c1c1c"/><stop offset=".5" stop-color="#888"/><stop offset="1"/></linearGradient><g transform="scale(.1875)"><path d="m54.892799 3.2812959v-2.79470843z" fill="#fff" fill-opacity=".756881"/><path d="m24.091827 15.99986-2.758467 32.00004h3.888203c1.602096-8.76654 5.707879-16.488326 8.891264-19.094209 3.183385-2.602315 9.389531-2.239151 18.183719-2.239151h1.036854v58.66674c0 7.00253-4.128977 8.208878-5.795225 9.944344-1.669717 1.733692-3.428985 2.868231-10.204949 3.394393l.000154 2.661283 24.554967-.0536 23.445093.0536-.000154-2.661311c-6.775964-.526152-8.49073-1.660673-10.160447-3.394365-1.666248-1.735466-5.839419-2.941814-5.839419-9.944344v-58.66674h1.036854c8.794188 0 14.557808-.363164 17.741193 2.239151 3.183381 2.605883 7.731693 10.327669 9.333788 19.094209h3.888205l-2.66667-32.00004h-37.896247z" fill="url(#a)" stroke-width="1.036854"/><g fill="#a4c0e4"><path d="m29.134871 93.864357h70.035614v.916678h-70.035614z" transform="matrix(1.5991885 0 0 -5.8180975 -41.258811 663.44531)"/><path d="m10.66668 5.33318h5.333339v117.33348h-5.333339z"/><path d="m106.6668 5.33318h5.333337v117.33348h-5.333337z"/></g></g></svg>

<?xml version="1.0" encoding="UTF-8" standalone="no"?>
<!-- Created with Inkscape (http://www.inkscape.org/) -->

<svg
   xmlns:dc="http://purl.org/dc/elements/1.1/"
   xmlns:cc="http://creativecommons.org/ns#"
   xmlns:rdf="http://www.w3.org/1999/02/22-rdf-syntax-ns#"
   xmlns:svg="http://www.w3.org/2000/svg"
   xmlns="http://www.w3.org/2000/svg"
   xmlns:xlink="http://www.w3.org/1999/xlink"
   xmlns:sodipodi="http://sodipodi.sourceforge.net/DTD/sodipodi-0.dtd"
   xmlns:inkscape="http://www.inkscape.org/namespaces/inkscape"
   width="24"
   height="24"
   id="svg1307"
   sodipodi:version="0.32"
   inkscape:version="0.92.4 (unknown)"
   version="1.0"
   sodipodi:docname="lc_text.svg"
   inkscape:output_extension="org.inkscape.output.svgz.inkscape"
   inkscape:export-filename="/home/rizmut/Dokumen/Rizmut/Github/libreoffice-style-karasa-jaga/build/next/cmd/lc_text.png"
   inkscape:export-xdpi="18"
   inkscape:export-ydpi="18">
  <defs
     id="defs1309">
    <inkscape:perspective
       sodipodi:type="inkscape:persp3d"
       inkscape:vp_x="0 : 64 : 1"
       inkscape:vp_y="0 : 1000 : 0"
       inkscape:vp_z="128 : 64 : 1"
       inkscape:persp3d-origin="64 : 42.666667 : 1"
       id="perspective35" />
    <linearGradient
       id="linearGradient3180">
      <stop
         style="stop-color:#1c1c1c;stop-opacity:1;"
         offset="0"
         id="stop3182" />
      <stop
         id="stop3188"
         offset="0.5"
         style="stop-color:#888888;stop-opacity:1;" />
      <stop
         style="stop-color:#000000;stop-opacity:1;"
         offset="1"
         id="stop3184" />
    </linearGradient>
    <linearGradient
       inkscape:collect="always"
       xlink:href="#linearGradient3180"
       id="linearGradient3186"
       x1="37.688"
       y1="63.0005"
       x2="90.311996"
       y2="63.0005"
       gradientUnits="userSpaceOnUse" />
    <linearGradient
       inkscape:collect="always"
       xlink:href="#linearGradient3180"
       id="linearGradient3190"
       gradientUnits="userSpaceOnUse"
       x1="64"
       y1="22.506487"
       x2="64"
       y2="93.317558" />
    <radialGradient
       gradientUnits="userSpaceOnUse"
       r="154.149"
       cy="103.667"
       cx="98.125"
       id="XMLID_8_">
      <stop
         id="stop2919"
         style="stop-color:#A4C0E4;fill-opacity:1.0;fill:url(#linearGradient3186)"
         offset="0" />
      <stop
         id="stop2921"
         style="stop-color:#00438A;fill-opacity:1.0;fill:url(#linearGradient3186)"
         offset="1" />
    </radialGradient>
    <linearGradient
       inkscape:collect="always"
       xlink:href="#linearGradient3180"
       id="linearGradient3626"
       gradientUnits="userSpaceOnUse"
       x1="64"
       y1="22.506487"
       x2="64"
       y2="93.317558"
       gradientTransform="matrix(1.6722408,0,0,1.720232,-43.023411,-48.230943)" />
    <linearGradient
       inkscape:collect="always"
       xlink:href="#linearGradient3180"
       id="linearGradient3631"
       gradientUnits="userSpaceOnUse"
       gradientTransform="matrix(-1.6722408,0,0,1.720232,171.02341,-48.230943)"
       x1="64"
       y1="22.506487"
       x2="64"
       y2="93.317558" />
    <linearGradient
       inkscape:collect="always"
       xlink:href="#linearGradient3180"
       id="linearGradient3633"
       gradientUnits="userSpaceOnUse"
       gradientTransform="matrix(1.6722408,0,0,1.720232,-43.023411,-48.230943)"
       x1="64"
       y1="22.506487"
       x2="64"
       y2="93.317558" />
    <linearGradient
       inkscape:collect="always"
       xlink:href="#linearGradient3180"
       id="linearGradient3638"
       gradientUnits="userSpaceOnUse"
       gradientTransform="matrix(1.7338699,0,0,1.7836298,-50.197128,-58.893096)"
       x1="64"
       y1="22.506487"
       x2="64"
       y2="93.317558" />
    <radialGradient
       gradientUnits="userSpaceOnUse"
       r="165.9342"
       cy="114"
       cx="110.4854"
       id="XMLID_11_">
      <stop
         id="stop2946"
         style="stop-color:#888A85"
         offset="0.0056" />
      <stop
         id="stop2948"
         style="stop-color:#EEEEEC"
         offset="1" />
    </radialGradient>
  </defs>
  <sodipodi:namedview
     id="base"
     pagecolor="#ffffff"
     bordercolor="#666666"
     borderopacity="1.0"
     inkscape:pageopacity="0.0"
     inkscape:pageshadow="2"
     inkscape:zoom="4"
     inkscape:cx="44.009092"
     inkscape:cy="20.601196"
     inkscape:current-layer="g47"
     showgrid="true"
     inkscape:document-units="px"
     inkscape:grid-bbox="true"
     guidetolerance="0.1px"
     showguides="false"
     inkscape:guide-bbox="true"
     inkscape:window-width="1366"
     inkscape:window-height="714"
     inkscape:window-x="0"
     inkscape:window-y="28"
     gridtolerance="10000"
     inkscape:grid-points="true"
     showborder="true"
     inkscape:snap-global="true"
     inkscape:window-maximized="1">
    <sodipodi:guide
       orientation="horizontal"
       position="32.487481"
       id="guide2204"
       inkscape:locked="false" />
    <inkscape:grid
       id="GridFromPre046Settings"
       type="xygrid"
       originx="0"
       originy="0"
       spacingx="0.5"
       spacingy="0.5"
       color="#0000ff"
       empcolor="#0000ff"
       opacity="0.2"
       empopacity="0.4"
       empspacing="2"
       visible="true"
       enabled="true" />
  </sodipodi:namedview>
  <metadata
     id="metadata1312">
    <rdf:RDF>
      <cc:Work
         rdf:about="">
        <dc:format>image/svg+xml</dc:format>
        <dc:type
           rdf:resource="http://purl.org/dc/dcmitype/StillImage" />
        <cc:license
           rdf:resource="http://creativecommons.org/licenses/GPL/2.0/" />
        <dc:contributor>
          <cc:Agent>
            <dc:title>Oxygen team</dc:title>
          </cc:Agent>
        </dc:contributor>
        <dc:title></dc:title>
      </cc:Work>
      <cc:License
         rdf:about="http://creativecommons.org/licenses/LGPL/2.1/">
        <cc:permits
           rdf:resource="http://web.resource.org/cc/Reproduction" />
        <cc:permits
           rdf:resource="http://web.resource.org/cc/Distribution" />
        <cc:requires
           rdf:resource="http://web.resource.org/cc/Notice" />
        <cc:permits
           rdf:resource="http://web.resource.org/cc/DerivativeWorks" />
        <cc:requires
           rdf:resource="http://web.resource.org/cc/ShareAlike" />
        <cc:requires
           rdf:resource="http://web.resource.org/cc/SourceCode" />
      </cc:License>
    </rdf:RDF>
  </metadata>
  <g
     id="layer1"
     inkscape:label="Layer 1"
     inkscape:groupmode="layer"
     transform="translate(0,-104)">
    <g
       id="g47"
       transform="matrix(0.1875,0,0,0.1875,0,104)">
      <path
         style="fill:#ffffff;fill-opacity:0.75688076;fill-rule:nonzero;stroke:none"
         d="M 54.892799,3.2812959 V 0.48658747 Z"
         id="path2276"
         sodipodi:nodetypes="ccc"
         inkscape:connector-curvature="0" />
      <path
         inkscape:connector-curvature="0"
         sodipodi:nodetypes="cccccccscccccsccccccccc"
         id="path2923"
         d="M 24.091827,15.99986 21.33336,47.9999 h 3.888203 c 1.602096,-8.76654 5.707879,-16.488326 8.891264,-19.094209 3.183385,-2.602315 9.389531,-2.239151 18.183719,-2.239151 H 53.3334 v 58.66674 c 0,7.00253 -4.128977,8.208878 -5.795225,9.944344 -1.669717,1.733692 -3.428985,2.868231 -10.204949,3.394393 l 1.54e-4,2.661283 24.554967,-0.0536 23.445093,0.0536 -1.54e-4,-2.661311 C 78.557322,98.145837 76.842556,97.011316 75.172839,95.277624 73.506591,93.542158 69.33342,92.33581 69.33342,85.33328 V 26.66654 h 1.036854 c 8.794188,0 14.557808,-0.363164 17.741193,2.239151 3.183381,2.605883 7.731693,10.327669 9.333788,19.094209 h 3.888205 L 98.66679,15.99986 H 60.770543 Z"
         style="fill:url(#linearGradient3638);fill-opacity:1;stroke-width:1.03685415" />
      <g
         transform="matrix(1.5991885,0,0,-5.8180975,-41.258811,663.44531)"
         id="g2925"
         style="fill:#a4c0e4;fill-opacity:1">
        <radialGradient
           gradientUnits="userSpaceOnUse"
           r="165.9342"
           cy="114"
           cx="112.667"
           id="XMLID_9_">
          <stop
             id="stop2928"
             style="stop-color:#888A85"
             offset="0.0056" />
          <stop
             id="stop2930"
             style="stop-color:#EEEEEC"
             offset="1" />
        </radialGradient>
        <rect
           id="rect2932"
           height="0.91667777"
           width="70.035614"
           y="93.864357"
           x="29.134871"
           style="fill:#a4c0e4;fill-opacity:1" />
      </g>
      <rect
         style="fill:#a4c0e4;fill-opacity:1"
         x="10.66668"
         y="5.33318"
         width="5.3333392"
         height="117.33348"
         id="rect2950" />
      <rect
         id="rect3636"
         height="117.33348"
         width="5.3333373"
         y="5.33318"
         x="106.6668"
         style="fill:#a4c0e4;fill-opacity:1" />
    </g>
  </g>
</svg>
